!!!!SEGMENT: pl-kozmzk--mzk-m-159--001_walczynski-franciszek--praeludia-organi-op-5-moderato.krn
!!!cenid: 18xx:2744
!!!COM: Walczyński, Franciszek
!!!COM-rismid: pe30021989
!!!CDT: ~1852-1937
!!!CNT: Polish
!!!GTL: Praeludia organi op. 5
!!!OTL: 1. Moderato
!!!PDT: 1894
!!!AGN: Secular; Prelude
!!!SMS-siglum: PL-KOZmzk
!!!SMS-shelfmark: mzk/m/159
!!!SMS-shelfwork: 001 G
!!!SMS-variant:
!!!SMS-altvar:
!!!NIFC-rismid: 1001116606
!!!URL-scan: https://repozytorium.nifc.pl/islandora/object/pl-kozmzk%3A2265/datastream/PDF/view
!!!ONB-nifc: UWAGA: numeracja plików zgodna z numeracją źrodłową
!!!AIN: 1 organ
!!!key:
**kern	**kern	**dynam
*part1	*part1	*part1
*staff2	*staff1	*
*Iorgan	*Iorgan	*
*I"Organo	*I"Organo	*
*clefF4	*clefG2	*
*k[]	*k[]	*
*C:	*C:	*
*M4/4	*M4/4	*
*met(c)	*met(c)	*
=1	=1	=1
*^	*^	*
!	!	!LO:TX:a:t=1. Moderato.	!	!LO:DY:b=2
1rA	(4.C\	1rg	1r	p
.	8D\	.	.	.
.	8E\L	.	.	.
.	8BB\	.	.	.
.	8C\	.	.	.
.	8A\J	.	.	.
=2	=2	=2	=2	=2
1re	2G\	1rg	1r	.
.	4F#X\	.	.	.
.	4Fn\	.	.	.
=3	=3	=3	=3	=3
1re	2E\	1rg	1r	.
.	2F#X\)	.	.	.
=4	=4	=4	=4	=4
(4.G/	(4G\	1rg	1r	p
.	4F#X\	.	.	.
8A/	.	.	.	.
8B/L	8G\L	.	.	.
8F#/	8D#X\	.	.	.
8G/	8E\	.	.	.
8e/J	8C\J	.	.	.
=5	=5	=5	=5	=5
2d/	4BB\	1rg	1r	.
.	4Dn\	.	.	.
4c#X/	4E\	.	.	.
4cn/	4F#X\	.	.	.
=6	=6	=6	=6	=6
4B/	2G\	1rg	1r	.
4d/	.	.	.	.
4Gn/	2F\)	.	.	.
8A/L	.	.	.	.
8B/J)	.	.	.	.
=7	=7	=7	=7	=7
[2G/	4E\	1r	(4.c\	p
.	4BB\	.	.	.
.	.	.	8d\	.
(4.G/]	(8C\L	.	8e\L	.
.	8D\	.	8B\	.
.	8E\	.	8c\	.
8c/)	8F\J)	.	8a\J	.
=8	=8	=8	=8	=8
(4B/	(4G\	1r	2g\	.
4d/	4B\	.	.	.
4c/	4A\	.	4f#X\	.
4d/)	4B\	.	4fn\	.
=9	=9	=9	=9	=9
4c/	4c\	1r	4e\	.
4d/	4B\	.	2g\	.
2c/	2A\)	.	.	.
.	.	.	4f#X\)	.
=10	=10	=10	=10	=10
!	!	!	!	!LO:DY:a
(4B/	(4G\	(4.g/	2.d\	f
4A/	4F#X\	.	.	.
.	.	8a/	.	.
8G/L	8E\L	8b/L	.	.
8c/	8A\	8f#X/	.	.
8d/	8B\	8g/	4g\	.
8c/J	8c\J	8ee/J	.	.
=11	=11	=11	=11	=11
!!LO:LB:g=original
4A/	4F#X\	2dd/	2a\	.
4F#/	4D\	.	.	.
4G/	4E\	4cc#X/	4g\	.
4A/)	4F#\)	4ccn/)	[4d\	.
=12	=12	=12	=12	=12
(4G/	(4G\	(4b/	1d]	.
4A/	4F#X\	4dd/	.	.
4B/	2Fn\	4g/	.	<
8A/L	.	8a/L	.	.
8G/J	.	8b/J	.	.
=13	=13	=13	=13	=13
4G/	2E\	2cc/	2g\	.
2c/	.	.	.	.
.	2F\	2dd/	2a\	[
8B/L	.	.	.	.
8A/J	.	.	.	.
=14	=14	=14	=14	=14
[2B/)	[2E\)	[2ee/)	[2g#X\	ff
8B/]	8E;\]	(8ee;/L]	8g#\]	.
8r	8rB	8b/	8r	f
4r	4rB	8cc/	4r	.
.	.	8aa/J	.	.
=15	=15	=15	=15	=15
4r	4ryy	(2gg/	2b\	.
!LO:TX:b:i:t=Ped.	!	!	!	!LO:DY:b=2
(4d/	(4G\	.	.	ff
4c/	4A\	4ff#X/	4a\	.
4d/)	4B\)	4ffn/))	4g\	.
=16	=16	=16	=16	=16
4c/	(4c\	(4ee/	2g\	.
([2.c/	4B-X\	4gg/	.	.
.	4A\	4cc/	2fn\	.
.	4A-X\	4ff/	.	.
=17	=17	=17	=17	=17
4c/]	1G	2.ee/	4g\	.
4An/	.	.	4f#X\	.
2B/)	.	.	2fn\	.
.	.	4dd/	.	.
=18	=18	=18	=18	=18
!	!	!	!	!LO:DY:b
(4c/	[1C)	[1cc)	4e\	p <
4B/	.	.	(8c\L	.
.	.	.	8d\J	.
[2B-X/	.	.	8e\L	.
.	.	.	8c\	.
.	.	.	8d\	.
.	.	.	8e\J	.
=19	=19	=19	=19	=19
!	!	!	!	!LO:DY:a
4B-/]	1C_	1cc_	2.f\	[ >
8A/L	.	.	.	.
8G/J	.	.	.	.
8A/L	.	.	.	.
8F/	.	.	.	.
8G/	.	.	8c\L	.
8A-X/J	.	.	[8f\J	.
=20	=20	=20	=20	=20
1G)	1C;]	1cc;]	4f\]	] pp
!	!	!LO:TX:b:i:t=rit.	!	!
.	.	.	8e\L	.
.	.	.	8d\J	.
.	.	.	2e;\)	.
*v	*v	*	*	*
*	*v	*v	*
==	==	==
*-	*-	*-
!!!system-decoration: {(s1,s2)}
!!!ENC: Kamil Watkowski
!!!END: 2021-08-09
